X: 981
T:Drops of Brandy
M:9/8
L:1/8
S:Armitt MS
K:D major
e2d cAc cAc|e2d cAc d2B|e2d cAc cAc|dcd B2c dcB:||:Ace aec aec|Ace aec d
2B|Ace aec aec|dcd B2 c dcB:||
